X: 11523
Q: "With spirit, but not too fast."
M: 6/8
L: 1/8
K: Gm
[|\
f>ag f2d | g>ab {b}a2g | fdb fdB | f3 gab |\
f<dB Bfd | cAF FGA | BAG AFD | B3 G3 |]


